packages/synapse-interface/assets/icons/klay.svg

<svg fill="none" height="48" viewBox="0 0 48 48" width="48" xmlns="http://www.w3.org/2000/svg" xmlns:xlink="http://www.w3.org/1999/xlink"><linearGradient id="a" gradientUnits="userSpaceOnUse" x1="14.927" x2="41.697" y1="19.964" y2="-6.804"><stop offset="0" stop-color="#ff2f00"/><stop offset=".13" stop-color="#ff3f00"/><stop offset=".38" stop-color="#ff6700"/><stop offset=".59" stop-color="#ff8c00"/></linearGradient><linearGradient id="b" gradientUnits="userSpaceOnUse" x1="37.529" x2="37.529" y1="37.594" y2="6.846"><stop offset=".2" stop-color="#f00048"/><stop offset=".79" stop-color="#ff8c00"/></linearGradient><linearGradient id="c" gradientUnits="userSpaceOnUse" x1="-.107" x2="24.343" y1="33.648" y2="9.199"><stop offset=".09" stop-color="#850000"/><stop offset=".25" stop-color="#a90e00"/><stop offset=".45" stop-color="#ce1c00"/><stop offset=".64" stop-color="#e92700"/><stop offset=".8" stop-color="#f92d00"/><stop offset=".93" stop-color="#ff2f00"/></linearGradient><linearGradient id="d" gradientUnits="userSpaceOnUse" x1="11.154" x2="34.215" y1="46.787" y2="33.473"><stop offset=".07" stop-color="#850000"/><stop offset=".88" stop-color="#d30168"/></linearGradient><path d="m39.3793 5.5513c-4.0886-3.41847-9.2025-5.372401-14.5289-5.5513l-12.239 32.3192z" fill="url(#a)"/><path d="m42.4316 8.60999-15.3738 15.37381 15.3717 15.3717c3.5988-4.3142 5.5701-9.7542 5.5705-15.3724s-1.9702-11.0584-5.5684-15.37311z" fill="url(#b)"/><path d="m18.8344 3.69031-18.7852597 18.78319c-.3872413 6.0389 1.5250597 12.0007 5.3527297 16.6877z" fill="url(#c)"/><path d="m24.0034 27.0383-15.37382 15.3759c4.31482 3.5978 9.75482 5.5682 15.37272 5.5682 5.618 0 11.0579-1.9704 15.3728-5.5682z" fill="url(#d)"/></svg>

<svg width="48" height="48" viewBox="0 0 48 48" fill="none" xmlns="http://www.w3.org/2000/svg">
<path d="M39.3793 5.5513C35.2907 2.13283 30.1768 0.178899 24.8504 0L12.6114 32.3192L39.3793 5.5513Z" fill="url(#paint0_linear_1275_22570)"/>
<path d="M42.4316 8.60999L27.0578 23.9838L42.4295 39.3555C46.0283 35.0413 47.9996 29.6013 48 23.9831C48.0004 18.3649 46.0298 12.9247 42.4316 8.60999Z" fill="url(#paint1_linear_1275_22570)"/>
<path d="M18.8344 3.69031L0.0491403 22.4735C-0.338101 28.5124 1.5742 34.4742 5.40187 39.1612L18.8344 3.69031Z" fill="url(#paint2_linear_1275_22570)"/>
<path d="M24.0034 27.0383L8.62958 42.4142C12.9444 46.012 18.3844 47.9824 24.0023 47.9824C29.6203 47.9824 35.0602 46.012 39.3751 42.4142L24.0034 27.0383Z" fill="url(#paint3_linear_1275_22570)"/>
<defs>
<linearGradient id="paint0_linear_1275_22570" x1="14.9265" y1="19.964" x2="41.6965" y2="-6.80393" gradientUnits="userSpaceOnUse">
<stop stop-color="#FF2F00"/>
<stop offset="0.13" stop-color="#FF3F00"/>
<stop offset="0.38" stop-color="#FF6700"/>
<stop offset="0.59" stop-color="#FF8C00"/>
</linearGradient>
<linearGradient id="paint1_linear_1275_22570" x1="37.5288" y1="37.5938" x2="37.5288" y2="6.84616" gradientUnits="userSpaceOnUse">
<stop offset="0.2" stop-color="#F00048"/>
<stop offset="0.79" stop-color="#FF8C00"/>
</linearGradient>
<linearGradient id="paint2_linear_1275_22570" x1="-0.107175" y1="33.6479" x2="24.3435" y2="9.19936" gradientUnits="userSpaceOnUse">
<stop offset="0.09" stop-color="#850000"/>
<stop offset="0.25" stop-color="#A90E00"/>
<stop offset="0.45" stop-color="#CE1C00"/>
<stop offset="0.64" stop-color="#E92700"/>
<stop offset="0.8" stop-color="#F92D00"/>
<stop offset="0.93" stop-color="#FF2F00"/>
</linearGradient>
<linearGradient id="paint3_linear_1275_22570" x1="11.1539" y1="46.7868" x2="34.2146" y2="33.4726" gradientUnits="userSpaceOnUse">
<stop offset="0.07" stop-color="#850000"/>
<stop offset="0.88" stop-color="#D30168"/>
</linearGradient>
</defs>
</svg>
